source/img/sprite/reddit.svg

<svg width="20" height="22" viewBox="0 0 20 22" fill="none" xmlns="http://www.w3.org/2000/svg">
<path d="M11.9453 0.5C11.304 0.5 10.7021 0.84161 10.3161 1.33425C9.93009 1.82688 9.71732 2.4274 9.56231 3.06027C9.31611 4.07791 9.24012 5.20702 9.22188 6.22466C7.41944 6.35051 5.78722 6.91147 4.43159 7.77808C3.88143 7.29264 3.21882 7.02295 2.58356 7.03014C1.86015 7.03733 1.17322 7.36455 0.662576 8.03699C-0.313112 9.32072 -0.200649 11.4207 0.930054 12.6685C0.860145 13.0533 0.808473 13.4488 0.808473 13.8479C0.808473 18.0767 4.92399 21.5 10 21.5C15.076 21.5 19.1915 18.0731 19.1915 13.8479C19.1915 13.4488 19.1399 13.0533 19.0699 12.6685C20.2006 11.4207 20.3131 9.32072 19.3374 8.03699C18.8268 7.36455 18.1399 7.03733 17.4164 7.03014C16.7812 7.02295 16.1186 7.29264 15.5684 7.77808C14.2189 6.91507 12.5958 6.35411 10.8024 6.22466C10.8268 5.28613 10.8906 4.31164 11.0699 3.57808C11.1824 3.11781 11.3161 2.78339 11.459 2.6C11.6018 2.41661 11.7052 2.3411 11.9453 2.3411C12.4651 2.3411 12.5319 2.51729 12.845 2.94521C13.0031 3.16096 13.1854 3.43065 13.4772 3.69315C13.769 3.95565 14.2006 4.18219 14.6687 4.18219V2.3411C14.538 2.3411 14.5137 2.3375 14.4256 2.25479C14.3374 2.17209 14.2158 1.98151 14.0365 1.73699C13.6778 1.24435 12.9818 0.5 11.9453 0.5ZM17.0031 0.672603C15.7933 0.672603 14.8146 1.83048 14.8146 3.26164C14.8146 4.69281 15.7933 5.85069 17.0031 5.85069C18.2128 5.85069 19.1915 4.69281 19.1915 3.26164C19.1915 1.83048 18.2128 0.672603 17.0031 0.672603ZM17.0031 1.59315C17.7812 1.59315 18.4134 2.3411 18.4134 3.26164C18.4134 4.18219 17.7812 4.93014 17.0031 4.93014C16.225 4.93014 15.5927 4.18219 15.5927 3.26164C15.5927 2.3411 16.225 1.59315 17.0031 1.59315ZM10 7.66301C14.307 7.66301 17.9514 10.5002 17.9514 13.8479C17.9514 17.1993 14.307 20.0329 10 20.0329C5.69299 20.0329 2.0486 17.1993 2.0486 13.8479C2.0486 10.5002 5.69299 7.66301 10 7.66301ZM2.60787 8.49726C2.82368 8.50086 3.0486 8.55839 3.26441 8.66986C2.48325 9.37106 1.86319 10.1765 1.44069 11.0863C1.1489 10.3743 1.22793 9.48613 1.58659 9.01507C1.84799 8.66986 2.20969 8.49366 2.60787 8.49726ZM17.3921 8.49726C17.7903 8.49366 18.152 8.66986 18.4134 9.01507C18.7721 9.48613 18.8511 10.3743 18.5593 11.0863C18.1368 10.1765 17.5167 9.37106 16.7356 8.66986C16.9514 8.55839 17.1763 8.50086 17.3921 8.49726ZM6.88753 10.7986C6.10941 10.7986 5.47719 11.5466 5.47719 12.4671C5.47719 13.3877 6.10941 14.1356 6.88753 14.1356C7.66564 14.1356 8.29786 13.3877 8.29786 12.4671C8.29786 11.5466 7.66564 10.7986 6.88753 10.7986ZM13.1125 10.7986C12.3344 10.7986 11.7021 11.5466 11.7021 12.4671C11.7021 13.3877 12.3344 14.1356 13.1125 14.1356C13.8906 14.1356 14.5228 13.3877 14.5228 12.4671C14.5228 11.5466 13.8906 10.7986 13.1125 10.7986ZM6.13372 16.4658C6.62917 17.6776 8.16109 18.8534 10 18.8534C11.8389 18.8534 13.3952 17.6776 13.8906 16.4658C12.9909 17.1526 11.5714 17.6164 10 17.6164C8.42857 17.6164 7.03342 17.1526 6.13372 16.4658Z" fill="currentColor"/>
</svg>

<svg xmlns="http://www.w3.org/2000/svg" width="20" height="22" fill="none"><path fill="currentColor" d="M11.945.5c-.641 0-1.243.342-1.629.834-.386.493-.599 1.093-.754 1.726-.246 1.018-.322 2.147-.34 3.165-1.803.126-3.435.686-4.79 1.553-.55-.485-1.213-.755-1.848-.748-.724.007-1.41.335-1.921 1.007-.976 1.284-.864 3.384.267 4.631-.07.385-.122.78-.122 1.18C.808 18.077 4.924 21.5 10 21.5c5.076 0 9.192-3.427 9.192-7.652 0-.4-.052-.795-.122-1.18 1.13-1.247 1.243-3.347.267-4.631-.51-.672-1.197-1-1.92-1.007-.636-.007-1.298.263-1.849.748-1.35-.863-2.972-1.424-4.766-1.553.025-.939.089-1.913.268-2.647.112-.46.246-.795.389-.978.143-.183.246-.259.486-.259.52 0 .587.176.9.604.158.216.34.486.632.748.292.263.724.49 1.192.49V2.34c-.131 0-.155-.004-.243-.086-.089-.083-.21-.273-.39-.518C13.678 1.244 12.982.5 11.947.5Zm5.058.173c-1.21 0-2.188 1.157-2.188 2.589 0 1.43.978 2.589 2.188 2.589 1.21 0 2.189-1.158 2.189-2.59 0-1.43-.98-2.588-2.189-2.588Zm0 .92c.778 0 1.41.748 1.41 1.669 0 .92-.632 1.668-1.41 1.668-.778 0-1.41-.748-1.41-1.668 0-.92.632-1.669 1.41-1.669ZM10 7.663c4.307 0 7.951 2.837 7.951 6.185 0 3.351-3.644 6.185-7.951 6.185-4.307 0-7.951-2.834-7.951-6.185 0-3.348 3.644-6.185 7.951-6.185Zm-7.392.834c.216.004.44.061.656.173-.78.701-1.4 1.507-1.823 2.416-.292-.712-.213-1.6.146-2.07a1.241 1.241 0 0 1 1.02-.519Zm14.784 0c.398-.003.76.173 1.021.518.36.471.438 1.36.146 2.071-.422-.91-1.042-1.715-1.823-2.416a1.49 1.49 0 0 1 .656-.173ZM6.888 10.8c-.779 0-1.41.748-1.41 1.668 0 .92.631 1.669 1.41 1.669.778 0 1.41-.748 1.41-1.669 0-.92-.632-1.668-1.41-1.668Zm6.225 0c-.779 0-1.41.748-1.41 1.668 0 .92.631 1.669 1.41 1.669.778 0 1.41-.748 1.41-1.669 0-.92-.632-1.668-1.41-1.668Zm-6.98 5.667c.496 1.212 2.028 2.387 3.867 2.387s3.395-1.175 3.89-2.387c-.9.687-2.319 1.15-3.89 1.15-1.571 0-2.967-.463-3.866-1.15Z"/></svg>
